X: 2030
T: We Caught the Train
R: reel
C: Rick Gagne
N: 1988 on tenor banjo
M: 4/4
K: D
c |"D"dA~A2 "G"BAGA|"D"FA~A2 dcBA|"Bm"BF~F2 "Em"GFEF |"Bm"DF~F2 BABc | 
"D"dA~A2 "G"BAGA |"D"FA~A2 dcBA |"Bm"BABc defd|"A"edcd "Bm"B3 :|
A |"D"df~f2 "G"gfef|"Bm"af~f2 "G"gfef|"A"Ae~e2 "D"fede|"Em"ge~e2 "A"decd | 
"Bm"Bf~f2 "G"gfef |"D"af~f2 "G"gfef |"A"ABcd efec|"Bm"dcBA "G"B3 :|
